X: 2
T: McIntyre's Fancy
R: jig
M: 6/8
L: 1/8
K: Ador
def BAF | ABc B2B | fba fec | fBc BAF |def BAF | ABc B2B | fba feB | cBA B2B :|:b3 afe | fea fec | B2B ABd | efd efa |bfa efd | BdB AFA | deg f2e |1 dBA B2B :|2 dec B3 ||


Tune 819	Setting 13971

